X:340
T:Tripolitza
Z:Jack Campin, http://www.campin.me.uk/
F:Jack Campin's Nine-Note Tunebook
% last edit 03-02-2013
S:Karpeles, Folk Songs of Europe
G:"Klepht" song from the 19th century
M:4/4
L:1/8
Q:1/4=100
K:GMin
F2 GG  G2   G2 | G2 (FC)  F2  G2 |G2 z
    F (AB) (cd)|(c B2 A) (A G2 F)|G6 z2 |
B2 cd  d2   d2 | d2  cF  (AB) c2 |d2 z
    F (AB) (cd)|(c B2 A) (A G2 F)|G6 z2|]

